neru-dark-classic/22x22/places/folder-games.svg

<?xml version="1.0" encoding="UTF-8" standalone="no"?>
<svg
   xmlns:dc="http://purl.org/dc/elements/1.1/"
   xmlns:cc="http://creativecommons.org/ns#"
   xmlns:rdf="http://www.w3.org/1999/02/22-rdf-syntax-ns#"
   xmlns:svg="http://www.w3.org/2000/svg"
   xmlns="http://www.w3.org/2000/svg"
   xmlns:sodipodi="http://sodipodi.sourceforge.net/DTD/sodipodi-0.dtd"
   xmlns:inkscape="http://www.inkscape.org/namespaces/inkscape"
   width="22"
   height="22"
   version="1.1"
   viewBox="0 0 16 16"
   id="svg7"
   sodipodi:docname="folder-games.svg"
   inkscape:version="0.92.1 r">
  <metadata
     id="metadata11">
    <rdf:RDF>
      <cc:Work
         rdf:about="">
        <dc:format>image/svg+xml</dc:format>
        <dc:type
           rdf:resource="http://purl.org/dc/dcmitype/StillImage" />
      </cc:Work>
    </rdf:RDF>
  </metadata>
  <sodipodi:namedview
     pagecolor="#ffffff"
     bordercolor="#666666"
     borderopacity="1"
     objecttolerance="10"
     gridtolerance="10"
     guidetolerance="10"
     inkscape:pageopacity="0"
     inkscape:pageshadow="2"
     inkscape:window-width="769"
     inkscape:window-height="480"
     id="namedview9"
     showgrid="false"
     inkscape:zoom="10.727273"
     inkscape:cx="11"
     inkscape:cy="11"
     inkscape:window-x="0"
     inkscape:window-y="0"
     inkscape:window-maximized="0"
     inkscape:current-layer="svg7" />
  <defs
     id="defs3">
    <style
       id="current-color-scheme"
       type="text/css">
   .ColorScheme-Text { color:#d3dae3; } .ColorScheme-Highlight { color:#5294e2; }
  </style>
  </defs>
  <path
     style="color:#d3dae3;fill:currentColor;stroke-width:0.72725052"
     class="ColorScheme-Text"
     d="m 11.082101,3.6336667 c -0.175267,8.727e-4 -0.337444,0.05818 -0.490167,0.1676312 -0.385442,0.2770824 -1.1840361,0.5667463 -2.5876296,0.5667463 -1.410866,0 -2.2111324,-0.2896639 -2.5965752,-0.5667463 C 5.2550066,3.6914831 5.1093383,3.6407937 4.9347982,3.6407937 c -0.1745401,0 -0.3786066,0.050689 -0.5895092,0.1605042 -0.749068,0.400715 -1.447054,1.6968209 -1.8252242,3.3876783 -0.3199874,1.442865 -0.436234,3.4028778 -0.2471489,4.1919448 0.1672677,0.68507 0.458066,0.985424 0.9743703,0.985424 0.7563405,-0.01455 1.708675,-0.862519 2.3195654,-2.007211 0.4363503,-0.6341628 1.4556646,-0.9184448 2.4374528,-0.8886998 0.9745157,-0.03702 1.9927391,0.254537 2.4290896,0.8886998 0.61089,1.144692 1.562861,1.992666 2.326474,2.007211 0.509076,0 0.799976,-0.300354 0.967244,-0.985424 0.189085,-0.789067 0.07273,-2.7490798 -0.247266,-4.1919448 C 13.101676,5.4981188 12.403516,4.2020129 11.654447,3.8012979 11.447181,3.6882104 11.258096,3.6327212 11.082101,3.6336667 Z M 5.0910116,5.8210907 H 5.8182621 V 6.5483412 H 6.5455126 V 7.2755917 H 5.8182621 V 8.0028422 H 5.0910116 V 7.2755917 H 4.3637611 V 6.5483412 h 0.7272505 z m 5.4543784,0 A 0.36362525,0.36362525 0 0 1 10.909016,6.184716 0.36362525,0.36362525 0 0 1 10.54539,6.5483412 0.36362525,0.36362525 0 0 1 10.181765,6.184716 0.36362525,0.36362525 0 0 1 10.54539,5.8210907 Z M 9.8181399,6.5483412 A 0.36362525,0.36362525 0 0 1 10.181765,6.9119665 0.36362525,0.36362525 0 0 1 9.8181399,7.2755917 0.36362525,0.36362525 0 0 1 9.4545146,6.9119665 0.36362525,0.36362525 0 0 1 9.8181399,6.5483412 Z m 1.4545011,0 A 0.36362525,0.36362525 0 0 1 11.636266,6.9119665 0.36362525,0.36362525 0 0 1 11.272641,7.2755917 0.36362525,0.36362525 0 0 1 10.909016,6.9119665 0.36362525,0.36362525 0 0 1 11.272641,6.5483412 Z M 10.54539,7.2755917 A 0.36362525,0.36362525 0 0 1 10.909016,7.639217 0.36362525,0.36362525 0 0 1 10.54539,8.0028422 0.36362525,0.36362525 0 0 1 10.181765,7.639217 0.36362525,0.36362525 0 0 1 10.54539,7.2755917 Z"
     id="path5"
     inkscape:connector-curvature="0" />
</svg>

<svg xmlns="http://www.w3.org/2000/svg" width="22" height="22" version="1.1" viewBox="0 0 16 16" id="svg7"><defs id="defs3"><style id="current-color-scheme" type="text/css"></style></defs><path d="M11.082 3.634a.833.833 0 0 0-.49.167c-.386.277-1.184.567-2.588.567-1.41 0-2.21-.29-2.596-.567a.77.77 0 0 0-.473-.16c-.175 0-.379.05-.59.16-.749.401-1.447 1.697-1.825 3.388-.32 1.443-.436 3.403-.247 4.192.167.685.458.985.974.985.757-.014 1.709-.862 2.32-2.007.436-.634 1.456-.918 2.437-.889.975-.037 1.993.255 2.43.89.61 1.144 1.562 1.992 2.326 2.006.509 0 .8-.3.967-.985.19-.79.073-2.75-.247-4.192-.378-1.69-1.076-2.987-1.826-3.388a1.19 1.19 0 0 0-.572-.167zM5.091 5.82h.727v.727h.728v.728h-.728v.727h-.727v-.727h-.727v-.728h.727zm5.454 0a.364.364 0 0 1 .364.364.364.364 0 0 1-.364.363.364.364 0 0 1-.363-.363.364.364 0 0 1 .363-.364zm-.727.727a.364.364 0 0 1 .364.364.364.364 0 0 1-.364.364.364.364 0 0 1-.363-.364.364.364 0 0 1 .363-.364zm1.455 0a.364.364 0 0 1 .363.364.364.364 0 0 1-.363.364.364.364 0 0 1-.364-.364.364.364 0 0 1 .364-.364zm-.728.728a.364.364 0 0 1 .364.363.364.364 0 0 1-.364.364.364.364 0 0 1-.363-.364.364.364 0 0 1 .363-.363z" id="path5" color="#d3dae3" fill="currentColor" stroke-width=".727"/></svg>
